icon/pk/music.svg

<svg viewBox="0 0 48 48" fill="none" xmlns="http://www.w3.org/2000/svg" height="1em" width="1em">
  <path d="M30 34.5C30 32.567 31.567 31 33.5 31H41V34.4C41 36.3882 39.3882 38 37.4 38H33.5C31.567 38 30 36.433 30 34.5Z" fill="#2F88FF" stroke="black" stroke-width="4" stroke-linejoin="round"/>
  <path d="M6 38.5C6 36.567 7.567 35 9.5 35H16V38.4C16 40.3882 14.3882 42 12.4 42H9.5C7.567 42 6 40.433 6 38.5Z" fill="#2F88FF" stroke="black" stroke-width="4" stroke-linejoin="round"/>
  <path d="M16 18.044V18.044L41 12.125" stroke="black" stroke-width="4" stroke-linecap="round" stroke-linejoin="round"/>
  <path d="M16 38V10L41 4V33.6924" stroke="black" stroke-width="4" stroke-linecap="round" stroke-linejoin="round"/>
</svg>

<svg width="48" height="48" fill="none" xmlns="http://www.w3.org/2000/svg"><path d="M30 34.5a3.5 3.5 0 0 1 3.5-3.5H41v3.4a3.6 3.6 0 0 1-3.6 3.6h-3.9a3.5 3.5 0 0 1-3.5-3.5ZM6 38.5A3.5 3.5 0 0 1 9.5 35H16v3.4a3.6 3.6 0 0 1-3.6 3.6H9.5A3.5 3.5 0 0 1 6 38.5Z" fill="#2F88FF" stroke="#000" stroke-width="4" stroke-linejoin="round"/><path d="M16 18.044v0l25-5.919M16 38V10l25-6v29.692" stroke="#000" stroke-width="4" stroke-linecap="round" stroke-linejoin="round"/></svg>
